!!!OTL: Heiligen - Anrufung. / (Wallfahrtslied.)
!!!ARE: Europa, Mitteleuropa, Deutschland
!!!SCT: A0605
!!!TXL: @@GMH, (@@LAT)
!!!YEM: Copyright 1995, estate of Helmut Schaffrath.
**kern	**text
*M4/1	*
*met(c|)	*
*clefC4	*
*k[b-]	*
*F:ion	*
=1	=1
!LO:TX:a:t=jon.	!
{1F	Je-
1A	-ſus
1c	iſt
1c	ein
=2	=2
1d	ſüſ-
1B-	-ſer
0c;}	Nam:
=3||	=3||
{2c	vn-
2c	-ſer
2c	lie-
2c	-ben
1c	Fraw-
1B-	-en
=4	=4
2A/	růf-
2A/	-fen
1G	wir
0F;}	an,
=5|	=5|
{1F	Das
1G	Sy
1A	ſein
1c	wöll
=6	=6
1G	vn-
1F	-ſer
*lig	*
1D	Bott
1C}	.
*Xlig	*
=7||	=7||
{1A	ge-
1B-	-gen
1c	dem
1d	all-
=8	=8
1c	-mech-
2B-	-ti-
2B-	-gen
*lig	*
1A	Gott.
1G}	.
*Xlig	*
=9||	=9||
{2F	Ky-
2A/	-rie-
1G	-lei-
0F/ll}	-ſon.
==	==
!!!GTL: Geistliche Volkslieder
!!!AGN: Romanze, Ballade, Lied, religioeses Lied
!! Haym v. Themar Schoene Christenliche Cath. Weinaecht... 1590 No. 15.
!!!ONB: ESAC (Essen Associative Code) Database: ALTDEU
!!!AMT: simple quadruple
!!!AIN: vox
!!!EED: Helmut Schaffrath
!!!EEV: 1.0
!!!RDF**kern: l = terminal long
!!!AMD: Ionian
!!!URL-scan: https://rosdok.uni-rostock.de/mcrviewer/recordIdentifier/rosdok_ppn738218359/iview2/phys_0787.iview2?x=201.48295004982492&y=2155.9519161260687&scale=0.7052832894250849&rotation=0&layout=singlePageLayout&logicalDiv=log_0021
!!!ENC: Anna Maria Matuszewska
!!!EEV: 2024/22/03
*-	*-
